X: 305625
M: 2/4
L: 1/16
K: Eb
E2 |\
e2e2 B2G2 | f2f2 d2B2 | g2g2 f2e2 | e2d2 d4 |\
c3d fedc | Bede fdBA | FBGE | FAFD | E2G2"^D.C."E2 :|


